X: 290
%
U:~=!turn!
T: Lady Charlotte Campbell's Medley
C:Robt. MacIntosh
O:Scotland
B:Keith Norman MacDonald : "The Skye collection of the best reels & strathspeys extant" : 1887
Z:Ralph Palmer
R:Strathspey
M:C
L:1/8
K:Bb
F/E/ | D<FF>B E<GGc/B/ | A>cf>e d<bB<f | D<FF>B E<GGc/B/ | (A/B/c) F>e dBB :| a | b<BA>a g>GF>f | e>c e/d/c/B/ A<cc>a |
b>Ba>B g>Bf>B | (A/B/c) (Fe) dBBa | b>BA>a g>GF>f | e>c e/d/c/B/ Ac cB/A/ | G>BF>B E>BD>F | (E/F/G) TF>E DB,B, |]


